!!!COM: Mozart
!!!OTL: 9 Variationen uber ein Minuett von Duport
!!!Variation: Variation 9 f
**function	**harm	**kern	**kern
*	*	*clefF4	*clefG2
*	*	*k[f#c#]	*k[f#c#]
*M2/4	*M2/4	*M2/4	*M2/4
*D:	*D:	*D:	*D
=241	=241	=241	=241
2P	2V7b/IV	8F#L 8d	8cc'L
.	.	8F#J 8d	8cc'J
.	.	8F#L 8d	(16ccLL
.	.	.	16b
.	.	8F#J 8d	16cc
.	.	.	16ddJJ
=242	=242	=242	=242
2P	2IV	4G 4d	4b)
.	.	4r	4r
=243	=243	=243	=243
2P	2Ic	8AL 8d	8a'L
.	.	8AJ 8d	8a'J
.	.	8AL 8d	(16aLL
.	.	.	16g#
.	.	8AJ 8d	16a
.	.	.	16bJJ
=244	=244	=244	=244
2P	2viiob/V	4B 4d	4g#)
.	.	4r	4r
=245	=245	=245	=245
2P	2ivb	2B- 2d 2g	8gg'L
.	.	.	8gg'J
.	.	.	(16ggLL
.	.	.	16ff#
.	.	.	16gg
.	.	.	16aaJJ)
=246	=246	=246	=246
4.D	4.V7	4A 4c# 4g	16ggLL
.	.	.	16ee
.	.	.	16gg
.	.	.	16ccc#JJ
.	.	8r	16eeeLL
.	.	.	16gg
8D	8ivb	8BB- 8B-	16ddd
.	.	.	16ggJJ
=247	=247	=247	=247
4.D	4.V7	4.AA 4.A	16eeeLL
.	.	.	16gg
.	.	.	16ee
.	.	.	16ggJJ
.	.	.	16eeeLL
.	.	.	16gg
8D	8ivb	8BB- 8B-	16ddd
.	.	.	16ggJJ
=248	=248	=248	=248
4.D	4.V7	4.AA 4.A	16ccc#LL
.	.	.	16gg
.	.	.	16ee
.	.	.	16ggJJ
.	.	.	16eeeLL
.	.	.	16gg
8D	8ivb	8BB- 8B-	16ddd
.	.	.	16ggJJ
=249	=249	=249	=249
8D	8V7	8AAL 8A	16ccc#LL
.	.	.	16gg
8D	8ivb	8BB-J 8B-	16ddd
.	.	.	16ggJJ
8D	8V7	8AAL 8A	16ccc#LL
.	.	.	16gg
8D	8ivb	8BB-J 8B-	16ddd
.	.	.	16ggJJ
=250	=250	=250	=250
2D	2V7	[2A	16ccc#LL
.	.	.	16aa
.	.	.	16eee
.	.	.	16ggJJ
.	.	.	16ff#LL
.	.	.	16aa
.	.	.	16eee
.	.	.	16dddJJ
=251	=251	=251	=251
2D	2V7	2A]	16eeLL
.	.	.	16gg
.	.	.	16ddd
.	.	.	16ccc#JJ
.	.	.	16ddLL
.	.	.	16ff#
.	.	.	16ccc#
.	.	.	16bbJJ
=252	=252	=252	=252
2D	2V7	[2AA	16cc#LL
.	.	.	16ee
.	.	.	16bb
.	.	.	16aaJJ
.	.	.	16bLL
.	.	.	16dd
.	.	.	16aa
.	.	.	16ggJJ
=253	=253	=253	=253
2D	2V7	2AA_	16aLL
.	.	.	16cc#
.	.	.	16gg
.	.	.	16ff#JJ
.	.	.	16gLL
.	.	.	16b
.	.	.	16ff#
.	.	.	16eeJJ
=254	=254	=254	=254
2D	2V7	2AA_	16f#LL
.	.	.	16a
.	.	.	16ee
.	.	.	16ddJJ
.	.	.	16eLL
.	.	.	16g
.	.	.	16dd
.	.	.	16cc#JJ
=255	=255	=255	=255
2D	2V7	2AA]	16dLL
.	.	.	16f#
.	.	.	16cc#
.	.	.	16bJJ
.	.	.	16c#LL
.	.	.	16e
.	.	.	16b
.	.	.	16aJJ
*	*	*clefG2	*
=256	=256	=256	=256
2D	2viioD7b/V	8r	16BLL
.	.	.	16d
.	.	(8dd	16f
.	.	.	16g#JJ
.	.	8eeL	16eLL
.	.	.	16g#
.	.	8ffJ)	16d
.	.	.	16g#JJ
=257	=257	=257	=257
2D	2viioD7b/V	8r	16BLL
.	.	.	16d
.	.	(8dd	16f
.	.	.	16g#JJ
.	.	8eeL	16eLL
.	.	.	16g#
.	.	8ffJ)	16d
.	.	.	16g#JJ
=258	=258	=258	=258
2D	2viioD7b/V	8r	16BLL
.	.	.	16d
.	.	(8dd	16f
.	.	.	16g#JJ
.	.	8eeL	16eLL
.	.	.	16g#
.	.	8ffJ)	16d
.	.	.	16g#JJ
=259	=259	=259	=259
2D	2viioD7b/V	(8ffL	16dLL
.	.	.	16g#
.	.	8eeJ)	16e
.	.	.	16g#JJ
.	.	(8eeL	16eLL
.	.	.	16g#
.	.	8ddJ)	16f
.	.	.	16g#JJ
*	*	*clefF4	*
=260	=260	=260	=260
2D	2viioD7	8r	16c#LL
.	.	.	16e
.	.	(8EE	16g
.	.	.	16b-JJ
.	.	8DDL	16fLL
.	.	.	16b-
.	.	8CC#J)	16e
.	.	.	16b-JJ
=261	=261	=261	=261
2D	2viioD7	8r	16c#LL
.	.	.	16e
.	.	(8EE	16g
.	.	.	16b-JJ
.	.	8DDL	16fLL
.	.	.	16b-
.	.	8CC#J)	16e
.	.	.	16b-JJ
=262	=262	=262	=262
2D	2viioD7	(8CC#L	16eLL
.	.	.	16b-
.	.	8DDJ)	16d
.	.	.	16b-JJ
.	.	(8DDL	16dLL
.	.	.	16b-
.	.	8EEJ)	16c#
.	.	.	16b-JJ
=263	=263	=263	=263
2D	2viioD7	4EE	4c#
.	.	4DD	4r
=264	=264	=264	=264
2D	2viioD7	4CC#	2r
.	.	4BBB-	.
*	*	*	*clefF4
=265	=265	=265	=265
*19/8	*19/8	*M19/8	*M19/8
1D	1V7	1AAA 1CC# 1EE 1GG	2AAA;
.	.	.	(64AALLLL
.	.	.	64C#
.	.	.	64BB
.	.	.	64D
.	.	.	64C#
.	.	.	64E
.	.	.	64D
.	.	.	64F#JJJ
.	.	.	64ELLL
.	.	.	64Gn
.	.	.	64F#
.	.	.	64A
.	.	.	64G
.	.	.	64B
.	.	.	64A
.	.	.	64c#JJJJ
*	*	*	*clefG2
.	.	.	64BLLLL
.	.	.	64d
.	.	.	64c#
.	.	.	64e
.	.	.	64d
.	.	.	64f#
.	.	.	64e
.	.	.	64gJJJ
.	.	.	64f#LLL
.	.	.	64a
.	.	.	64g
.	.	.	64b
.	.	.	64a
.	.	.	64cc#
.	.	.	64b
.	.	.	64ddJJJ
1D	1V7	4r	64cc#LLL
.	.	.	64ee
.	.	.	64dd
.	.	.	64ff#
.	.	.	64ee
.	.	.	64gg
.	.	.	64ff#
.	.	.	64aaJJJJ)
.	.	.	2gg
.	.	4r	.
.	.	2.r	.
.	.	.	2gg#
4.D	4.V7	.	.
.	.	.	q32ff#
.	.	.	q32gg#
.	.	.	(8.bbL
.	.	8r	.
.	.	.	16aaJk)
*-	*-	*-	*-
